;FLAVOR:Marlin
;TIME:1400
;Filament used: 0.684153m
;Layer height: 0.2
;MINX:93.5
;MINY:102.5
;MINZ:0.2
;MAXX:141.5
;MAXY:132.5
;MAXZ:15
;Generated with Cura_SteamEngine 5.2.2
M140 S50
M105
M190 S50
M104 S210
M105
M109 S210
M82 ;absolute extrusion mode
; Ender 3 Custom Start G-code
G92 E0 ; Reset Extruder
G28 ; Home all axes
G1 Z2.0 F3000 ; Move Z Axis up little to prevent scratching of Heat Bed
G1 X0.1 Y20 Z0.3 F5000.0 ; Move to start position
G1 X0.1 Y200.0 Z0.3 F1500.0 E15 ; Draw the first line
G1 X0.4 Y200.0 Z0.3 F5000.0 ; Move to side a little
G1 X0.4 Y20 Z0.3 F1500.0 E30 ; Draw the second line
G92 E0 ; Reset Extruder
G1 Z2.0 F3000 ; Move Z Axis up little to prevent scratching of Heat Bed
G1 X5 Y20 Z0.3 F5000.0 ; Move over to prevent blob squish
G92 E0
G92 E0
G1 F2700 E-5
;LAYER_COUNT:75
;LAYER:0
M107
G0 F6000 X97.386 Y105.127 Z0.2
;TYPE:SKIRT
G1 F2700 E0
G1 F1200 X98.126 Y104.551 E0.03119
G1 X98.912 Y104.039 E0.06239
G1 X99.739 Y103.597 E0.09358
G1 X100.601 Y103.227 E0.12478
G1 X101.491 Y102.931 E0.15597
G1 X102.403 Y102.713 E0.18716
G1 X103.33 Y102.572 E0.21835
G1 X104.201 Y102.513 E0.24738
G1 X104.849 Y102.5 E0.26894
G1 X108.87 Y102.507 E0.40268
G1 X109.874 Y102.5 E0.43607
G1 X114.866 Y102.507 E0.60211
G1 X115.874 Y102.5 E0.63564
G1 X120.866 Y102.507 E0.80167
G1 X121.874 Y102.5 E0.8352
G1 X126.922 Y102.507 E1.00309
G1 X129.951 Y102.501 E1.10384
G1 X130.649 Y102.511 E1.12706
G1 X131.585 Y102.565 E1.15824
G1 X132.513 Y102.697 E1.18942
G1 X133.427 Y102.909 E1.22062
G1 X134.319 Y103.198 E1.25181
G1 X135.184 Y103.561 E1.28301
G1 X136.014 Y103.997 E1.31419
G1 X136.805 Y104.502 E1.34541
G1 X137.549 Y105.073 E1.3766
G1 X138.242 Y105.705 E1.4078
G1 X138.879 Y106.393 E1.43898
G1 X139.454 Y107.134 E1.47018
G1 X139.965 Y107.92 E1.50136
G1 X140.407 Y108.748 E1.53258
G1 X140.776 Y109.61 E1.56376
G1 X141.071 Y110.5 E1.59495
G1 X141.289 Y111.412 E1.62613
G1 X141.429 Y112.34 E1.65735
G1 X141.487 Y113.201 E1.68605
G1 X141.5 Y113.83 E1.70698
G1 X141.499 Y120.9 E1.94213
G1 X141.49 Y121.627 E1.96631
G1 X141.439 Y122.564 E1.99752
G1 X141.307 Y123.492 E2.02869
G1 X141.098 Y124.406 E2.05988
G1 X140.811 Y125.299 E2.09108
G1 X140.449 Y126.165 E2.1223
G1 X140.015 Y126.996 E2.15348
G1 X139.511 Y127.787 E2.18467
G1 X138.942 Y128.532 E2.21585
G1 X138.311 Y129.227 E2.24707
G1 X137.624 Y129.865 E2.27826
G1 X136.885 Y130.442 E2.30944
G1 X136.099 Y130.954 E2.34064
G1 X135.273 Y131.397 E2.37181
G1 X134.411 Y131.769 E2.40304
G1 X133.522 Y132.065 E2.4342
G1 X132.61 Y132.285 E2.46541
G1 X131.683 Y132.426 E2.49659
G1 X130.799 Y132.487 E2.52607
G1 X130.17 Y132.5 E2.54699
G1 X105.065 Y132.499 E3.38199
G1 X104.367 Y132.49 E3.40521
G1 X103.431 Y132.438 E3.43638
G1 X102.502 Y132.306 E3.46759
G1 X101.588 Y132.096 E3.49879
G1 X100.695 Y131.809 E3.52998
G1 X99.83 Y131.446 E3.56118
G1 X98.999 Y131.012 E3.59237
G1 X98.208 Y130.508 E3.62356
G1 X97.463 Y129.938 E3.65476
G1 X96.769 Y129.307 E3.68596
G1 X96.132 Y128.62 E3.71712
G1 X95.555 Y127.88 E3.74833
G1 X95.043 Y127.094 E3.77953
G1 X94.6 Y126.267 E3.81073
G1 X94.229 Y125.406 E3.84191
G1 X93.933 Y124.516 E3.87311
G1 X93.714 Y123.604 E3.90431
G1 X93.573 Y122.677 E3.93549
G1 X93.513 Y121.788 E3.96513
G1 X93.5 Y121.158 E3.98609
G1 X93.501 Y114.025 E4.22333
G1 X93.51 Y113.36 E4.24545
G1 X93.563 Y112.424 E4.27663
G1 X93.695 Y111.495 E4.30784
G1 X93.906 Y110.581 E4.33904
G1 X94.194 Y109.689 E4.37022
G1 X94.557 Y108.824 E4.40142
G1 X94.992 Y107.993 E4.43261
G1 X95.496 Y107.203 E4.46378
G1 X96.066 Y106.458 E4.49498
G1 X96.698 Y105.764 E4.5262
G1 X97.386 Y105.127 E4.55739
G0 F6000 X97.774 Y105.323
G1 F1200 X98.51 Y104.77 E4.588
G1 X99.291 Y104.282 E4.61863
G1 X100.111 Y103.864 E4.64925
G1 X100.965 Y103.519 E4.67988
G1 X101.845 Y103.249 E4.7105
G1 X102.745 Y103.057 E4.7411
G1 X103.659 Y102.943 E4.77174
G1 X104.212 Y102.913 E4.79016
G1 X104.848 Y102.9 E4.81132
G1 X108.872 Y102.907 E4.94516
G1 X109.874 Y102.9 E4.97848
G1 X114.869 Y102.907 E5.14462
G1 X115.874 Y102.9 E5.17805
G1 X120.869 Y102.907 E5.34418
G1 X121.874 Y102.9 E5.37761
G1 X126.923 Y102.907 E5.54554
G1 X129.945 Y102.901 E5.64605
G1 X130.643 Y102.911 E5.66927
G1 X131.562 Y102.964 E5.69989
G1 X132.473 Y103.097 E5.73051
G1 X133.369 Y103.308 E5.76112
G1 X134.243 Y103.596 E5.79173
G1 X135.09 Y103.959 E5.82238
G1 X135.901 Y104.394 E5.85299
G1 X136.671 Y104.898 E5.8836
G1 X137.395 Y105.467 E5.91422
G1 X138.067 Y106.097 E5.94486
G1 X138.682 Y106.782 E5.97548
G1 X139.235 Y107.518 E6.0061
G1 X139.722 Y108.299 E6.03671
G1 X140.139 Y109.12 E6.06734
G1 X140.484 Y109.974 E6.09797
G1 X140.753 Y110.854 E6.12858
G1 X140.945 Y111.755 E6.15922
G1 X141.058 Y112.668 E6.18982
G1 X141.087 Y113.212 E6.20794
G1 X141.1 Y113.83 E6.2285
G1 X141.099 Y120.895 E6.46348
G1 X141.09 Y121.622 E6.48766
G1 X141.039 Y122.541 E6.51827
G1 X140.908 Y123.453 E6.54892
G1 X140.698 Y124.349 E6.57953
G1 X140.412 Y125.224 E6.61014
G1 X140.051 Y126.071 E6.64077
G1 X139.617 Y126.883 E6.67139
G1 X139.115 Y127.655 E6.70202
G1 X138.547 Y128.38 E6.73265
G1 X137.919 Y129.053 E6.76327
G1 X137.235 Y129.669 E6.79388
G1 X136.5 Y130.223 E6.8245
G1 X135.72 Y130.712 E6.85512
G1 X134.9 Y131.131 E6.88574
G1 X134.047 Y131.477 E6.91636
G1 X133.167 Y131.748 E6.94698
G1 X132.267 Y131.941 E6.9776
G1 X131.353 Y132.056 E7.00824
G1 X130.788 Y132.087 E7.02706
G1 X130.17 Y132.1 E7.04762
G1 X105.07 Y132.099 E7.88245
G1 X104.372 Y132.09 E7.90566
G1 X103.453 Y132.038 E7.93628
G1 X102.542 Y131.907 E7.96689
G1 X101.646 Y131.697 E7.9975
G1 X100.771 Y131.41 E8.02813
G1 X99.924 Y131.048 E8.05876
G1 X99.112 Y130.614 E8.08939
G1 X98.341 Y130.112 E8.11999
G1 X97.616 Y129.544 E8.15062
G1 X96.943 Y128.915 E8.18126
G1 X96.328 Y128.231 E8.21185
G1 X95.774 Y127.496 E8.24247
G1 X95.286 Y126.715 E8.2731
G1 X94.867 Y125.895 E8.30372
G1 X94.521 Y125.042 E8.33434
G1 X94.251 Y124.162 E8.36495
G1 X94.058 Y123.261 E8.3956
G1 X93.944 Y122.348 E8.4262
G1 X93.913 Y121.777 E8.44522
G1 X93.9 Y121.158 E8.46582
G1 X93.901 Y114.031 E8.70286
G1 X93.91 Y113.366 E8.72498
G1 X93.962 Y112.446 E8.75563
G1 X94.094 Y111.535 E8.78625
G1 X94.305 Y110.639 E8.81686
G1 X94.592 Y109.764 E8.84749
G1 X94.955 Y108.918 E8.87811
G1 X95.389 Y108.106 E8.90873
G1 X95.892 Y107.335 E8.93935
G1 X96.461 Y106.611 E8.96998
G1 X97.089 Y105.939 E9.00057
G1 X97.774 Y105.323 E9.03121
G0 F6000 X98.162 Y105.524
G1 F1200 X98.894 Y104.994 E9.06127
G1 X99.669 Y104.531 E9.09129
G1 X100.482 Y104.138 E9.12133
G1 X101.327 Y103.818 E9.15138
G1 X102.196 Y103.575 E9.18139
G1 X103.084 Y103.409 E9.21144
G1 X104.223 Y103.313 E9.24946
G1 X104.847 Y103.3 E9.27022
G1 X108.874 Y103.307 E9.40415
G1 X109.873 Y103.3 E9.43738
G1 X114.871 Y103.307 E9.60362
G1 X115.873 Y103.3 E9.63694
G1 X120.871 Y103.307 E9.80318
G1 X121.873 Y103.3 E9.83651
G1 X126.923 Y103.307 E10.00447
G1 X129.939 Y103.301 E10.10478
G1 X130.637 Y103.311 E10.128
G1 X131.539 Y103.364 E10.15805
G1 X132.432 Y103.496 E10.18808
G1 X133.31 Y103.707 E10.21811
G1 X134.166 Y103.995 E10.24815
G1 X134.993 Y104.357 E10.27817
G1 X135.785 Y104.792 E10.30823
G1 X136.536 Y105.294 E10.33827
G1 X137.239 Y105.861 E10.36831
G1 X137.889 Y106.488 E10.39835
G1 X138.481 Y107.17 E10.42839
G1 X139.011 Y107.901 E10.45842
G1 X139.473 Y108.677 E10.48846
G1 X139.866 Y109.49 E10.51849
G1 X140.184 Y110.335 E10.54852
G1 X140.427 Y111.205 E10.57856
G1 X140.592 Y112.093 E10.6086
G1 X140.687 Y113.223 E10.64632
G1 X140.7 Y113.83 E10.66651
G1 X140.699 Y120.89 E10.90133
G1 X140.69 Y121.617 E10.92551
G1 X140.639 Y122.519 E10.95556
G1 X140.508 Y123.413 E10.98561
G1 X140.299 Y124.291 E11.01563
G1 X140.013 Y125.148 E11.04568
G1 X139.652 Y125.976 E11.07572
G1 X139.22 Y126.768 E11.10573
G1 X138.719 Y127.52 E11.13578
G1 X138.153 Y128.224 E11.16583
G1 X137.528 Y128.875 E11.19584
G1 X136.847 Y129.469 E11.2259
G1 X136.116 Y130 E11.25595
G1 X135.342 Y130.464 E11.28597
G1 X134.529 Y130.858 E11.31601
G1 X133.685 Y131.178 E11.34604
G1 X132.815 Y131.423 E11.3761
G1 X131.928 Y131.589 E11.40611
G1 X130.777 Y131.687 E11.44453
G1 X130.17 Y131.7 E11.46473
G1 X105.075 Y131.699 E12.29939
G1 X104.377 Y131.69 E12.32261
G1 X103.476 Y131.639 E12.35262
G1 X102.582 Y131.507 E12.38268
G1 X101.704 Y131.298 E12.4127
G1 X100.847 Y131.011 E12.44276
G1 X100.02 Y130.65 E12.47277
G1 X99.227 Y130.217 E12.50282
G1 X98.476 Y129.716 E12.53285
G1 X97.772 Y129.15 E12.56289
G1 X97.121 Y128.524 E12.59293
G1 X96.528 Y127.843 E12.62296
G1 X95.998 Y127.112 E12.65299
G1 X95.534 Y126.337 E12.68304
G1 X95.14 Y125.524 E12.71309
G1 X94.82 Y124.68 E12.74311
G1 X94.576 Y123.81 E12.77316
G1 X94.41 Y122.922 E12.80321
G1 X94.313 Y121.767 E12.84176
G1 X94.3 Y121.158 E12.86202
G1 X94.301 Y114.036 E13.0989
G1 X94.31 Y113.371 E13.12102
G1 X94.362 Y112.469 E13.15107
G1 X94.494 Y111.576 E13.18109
G1 X94.704 Y110.698 E13.21112
G1 X94.991 Y109.841 E13.24118
G1 X95.353 Y109.014 E13.2712
G1 X95.786 Y108.222 E13.30123
G1 X96.288 Y107.471 E13.33127
G1 X96.855 Y106.767 E13.36134
G1 X97.481 Y106.117 E13.39135
G1 X98.162 Y105.524 E13.42138
G1 F2700 E8.42138
;MESH:antenna-test-antenna-test.stl
G0 F6000 X104.914 Y112.835
G0 X105.101 Y120.899
;TYPE:WALL-INNER
G1 F2700 E13.42138
G1 F1200 X129.9 Y120.9 E14.2462
G1 X129.9 Y114.1 E14.47237
G1 X128.1 Y114.1 E14.53224
G1 X128.1 Y116.002 E14.5955
G1 X128.253 Y116.172 E14.60311
G1 X128.487 Y116.546 E14.61778
G1 X128.651 Y117.015 E14.63431
G1 X128.705 Y117.503 E14.65064
G1 X128.644 Y118.015 E14.66779
G1 X128.459 Y118.513 E14.68545
G1 X128.167 Y118.942 E14.70272
G1 X127.78 Y119.295 E14.72014
G1 X127.327 Y119.544 E14.73733
G1 X126.839 Y119.675 E14.75414
G1 X126.299 Y119.695 E14.77211
G1 X125.783 Y119.584 E14.78966
G1 X125.317 Y119.36 E14.80686
G1 X124.909 Y119.027 E14.82438
G1 X124.587 Y118.597 E14.84224
G1 X124.393 Y118.137 E14.85885
G1 X124.302 Y117.619 E14.87634
G1 X124.336 Y117.085 E14.89414
G1 X124.491 Y116.593 E14.91129
G1 X124.718 Y116.213 E14.92602
G1 X124.9 Y116.004 E14.93523
G1 X124.9 Y114.1 E14.99856
G1 X122.1 Y114.1 E15.09169
G1 X122.1 Y116.002 E15.15495
G1 X122.264 Y116.188 E15.1632
G1 X122.489 Y116.55 E15.17738
G1 X122.652 Y117.023 E15.19401
G1 X122.701 Y117.496 E15.20983
G1 X122.64 Y118.013 E15.22715
G1 X122.452 Y118.524 E15.24526
G1 X122.167 Y118.942 E15.26208
G1 X121.78 Y119.295 E15.2795
G1 X121.327 Y119.544 E15.2967
G1 X120.839 Y119.675 E15.3135
G1 X120.299 Y119.695 E15.33148
G1 X119.783 Y119.584 E15.34903
G1 X119.317 Y119.36 E15.36623
G1 X118.909 Y119.027 E15.38374
G1 X118.587 Y118.597 E15.40161
G1 X118.393 Y118.137 E15.41822
G1 X118.302 Y117.619 E15.43571
G1 X118.336 Y117.085 E15.45351
G1 X118.491 Y116.593 E15.47066
G1 X118.718 Y116.213 E15.48538
G1 X118.9 Y116.004 E15.4946
G1 X118.9 Y114.1 E15.55793
G1 X116.1 Y114.1 E15.65106
G1 X116.1 Y116.002 E15.71432
G1 X116.264 Y116.188 E15.72257
G1 X116.489 Y116.55 E15.73674
G1 X116.652 Y117.023 E15.75338
G1 X116.701 Y117.496 E15.7692
G1 X116.64 Y118.013 E15.78651
G1 X116.452 Y118.524 E15.80462
G1 X116.167 Y118.942 E15.82145
G1 X115.78 Y119.295 E15.83887
G1 X115.327 Y119.544 E15.85606
G1 X114.839 Y119.675 E15.87287
G1 X114.299 Y119.695 E15.89084
G1 X113.783 Y119.584 E15.9084
G1 X113.317 Y119.36 E15.92559
G1 X112.909 Y119.027 E15.94311
G1 X112.587 Y118.597 E15.96098
G1 X112.393 Y118.137 E15.97758
G1 X112.302 Y117.619 E15.99508
G1 X112.336 Y117.085 E16.01287
G1 X112.491 Y116.593 E16.03003
G1 X112.718 Y116.213 E16.04475
G1 X112.9 Y116.004 E16.05397
G1 X112.9 Y114.1 E16.1173
G1 X110.1 Y114.1 E16.21042
G1 X110.1 Y116.002 E16.27369
G1 X110.264 Y116.188 E16.28193
G1 X110.489 Y116.55 E16.29611
G1 X110.652 Y117.023 E16.31275
G1 X110.701 Y117.496 E16.32857
G1 X110.64 Y118.013 E16.34588
G1 X110.452 Y118.524 E16.36399
G1 X110.167 Y118.942 E16.38082
G1 X109.78 Y119.295 E16.39824
G1 X109.327 Y119.544 E16.41543
G1 X108.839 Y119.675 E16.43224
G1 X108.299 Y119.695 E16.45021
G1 X107.783 Y119.584 E16.46777
G1 X107.315 Y119.359 E16.48504
G1 X106.907 Y119.023 E16.50262
G1 X106.593 Y118.61 E16.51987
G1 X106.388 Y118.134 E16.53711
G1 X106.297 Y117.616 E16.5546
G1 X106.331 Y117.105 E16.57164
G1 X106.488 Y116.598 E16.58929
G1 X106.74 Y116.178 E16.60558
G1 X106.9 Y116.004 E16.61344
G1 X106.9 Y114.1 E16.67677
G1 X105.1 Y114.1 E16.73664
G1 X105.1 Y115 E16.76657
G1 X105.101 Y120.899 E16.96277
G0 F6000 X104.701 Y121.299
;TYPE:WALL-OUTER
G1 F1200 X130.3 Y121.3 E17.8142
G1 X130.3 Y113.7 E18.06698
G1 X127.7 Y113.7 E18.15345
G1 X127.7 Y116.167 E18.2355
G1 X127.921 Y116.394 E18.24604
G1 X128.132 Y116.743 E18.25961
G1 X128.26 Y117.125 E18.27301
G1 X128.299 Y117.523 E18.28631
G1 X128.254 Y117.909 E18.29923
G1 X128.102 Y118.327 E18.31403
G1 X127.878 Y118.657 E18.32729
G1 X127.527 Y118.977 E18.34309
G1 X127.194 Y119.16 E18.35573
G1 X126.77 Y119.281 E18.37039
G1 X126.356 Y119.293 E18.38417
G1 X125.938 Y119.208 E18.39835
G1 X125.532 Y119.02 E18.41324
G1 X125.189 Y118.733 E18.42811
G1 X124.955 Y118.426 E18.44095
G1 X124.776 Y118.02 E18.45571
G1 X124.704 Y117.62 E18.46923
G1 X124.729 Y117.179 E18.48392
G1 X124.853 Y116.774 E18.498
G1 X125.074 Y116.396 E18.51257
G1 X125.3 Y116.168 E18.52325
G1 X125.3 Y113.7 E18.60533
G1 X121.7 Y113.7 E18.72507
G1 X121.7 Y116.167 E18.80712
G1 X121.896 Y116.364 E18.81636
G1 X122.118 Y116.71 E18.83004
G1 X122.255 Y117.096 E18.84366
G1 X122.301 Y117.498 E18.85712
G1 X122.251 Y117.921 E18.87128
G1 X122.102 Y118.322 E18.88551
G1 X121.878 Y118.657 E18.89892
G1 X121.527 Y118.977 E18.91471
G1 X121.194 Y119.16 E18.92735
G1 X120.77 Y119.281 E18.94202
G1 X120.356 Y119.293 E18.95579
G1 X119.938 Y119.208 E18.96998
G1 X119.532 Y119.02 E18.98486
G1 X119.189 Y118.733 E18.99974
G1 X118.955 Y118.426 E19.01257
G1 X118.776 Y118.02 E19.02733
G1 X118.704 Y117.62 E19.04085
G1 X118.729 Y117.179 E19.05554
G1 X118.853 Y116.774 E19.06963
G1 X119.074 Y116.396 E19.08419
G1 X119.3 Y116.168 E19.09487
G1 X119.3 Y113.7 E19.17696
G1 X115.7 Y113.7 E19.29669
G1 X115.7 Y116.167 E19.37875
G1 X115.896 Y116.364 E19.38799
G1 X116.118 Y116.71 E19.40166
G1 X116.255 Y117.096 E19.41528
G1 X116.301 Y117.498 E19.42874
G1 X116.251 Y117.921 E19.44291
G1 X116.102 Y118.322 E19.45714
G1 X115.878 Y118.657 E19.47054
G1 X115.527 Y118.977 E19.48634
G1 X115.194 Y119.16 E19.49898
G1 X114.77 Y119.281 E19.51364
G1 X114.356 Y119.293 E19.52742
G1 X113.938 Y119.208 E19.5416
G1 X113.532 Y119.02 E19.55649
G1 X113.189 Y118.733 E19.57136
G1 X112.955 Y118.426 E19.5842
G1 X112.776 Y118.02 E19.59896
G1 X112.704 Y117.62 E19.61248
G1 X112.729 Y117.179 E19.62717
G1 X112.853 Y116.774 E19.64125
G1 X113.074 Y116.396 E19.65582
G1 X113.3 Y116.168 E19.66649
G1 X113.3 Y113.7 E19.74858
G1 X109.7 Y113.7 E19.86832
G1 X109.7 Y116.167 E19.95037
G1 X109.896 Y116.364 E19.95961
G1 X110.118 Y116.71 E19.97329
G1 X110.255 Y117.096 E19.98691
G1 X110.301 Y117.498 E20.00037
G1 X110.251 Y117.921 E20.01453
G1 X110.102 Y118.322 E20.02876
G1 X109.878 Y118.657 E20.04217
G1 X109.527 Y118.977 E20.05796
G1 X109.194 Y119.16 E20.0706
G1 X108.77 Y119.281 E20.08527
G1 X108.356 Y119.293 E20.09904
G1 X107.938 Y119.208 E20.11323
G1 X107.552 Y119.029 E20.12738
G1 X107.209 Y118.755 E20.14198
G1 X106.942 Y118.408 E20.15654
G1 X106.77 Y117.996 E20.17139
G1 X106.704 Y117.62 E20.18409
G1 X106.727 Y117.196 E20.19821
G1 X106.849 Y116.784 E20.21251
G1 X107.069 Y116.406 E20.22705
G1 X107.3 Y116.168 E20.23808
G1 X107.3 Y113.7 E20.32017
G1 X104.7 Y113.7 E20.40665
G1 X104.7 Y115 E20.44988
G1 X104.701 Y121.299 E20.65939
G0 F6000 X104.97 Y121.03
G0 X113.314 Y120.799
G0 X113.632 Y120.539
;TYPE:SKIN
G1 F1134.8 X114.188 Y120.515 E20.67896
G1 F1064.3 X114.953 Y120.51 E20.70765
G1 F1121.5 X115.527 Y120.538 E20.7281
G1 F1200 X119.632 Y120.539 E20.86464
G1 F1134.8 X120.188 Y120.515 E20.88421
G1 F1069 X120.913 Y120.513 E20.91128
G1 F1126.8 X121.527 Y120.538 E20.93305
G1 F1200 X125.632 Y120.539 E21.06958
G1 F1134.8 X126.188 Y120.515 E21.08915
G1 F1069 X126.913 Y120.513 E21.11622
G1 F1126.8 X127.528 Y120.538 E21.13802
G1 F1200 X129.54 Y120.54 E21.20494
G1 X129.54 Y118.792 E21.26308
G1 F1100.9 X129.504 Y118.131 E21.28708
G1 F1052.6 X129.52 Y117.543 E21.30938
G1 F1057.3 X129.507 Y116.934 E21.33238
G1 F1108.5 X129.54 Y116.28 E21.35596
G1 F1200 X129.54 Y114.46 E21.41649
G1 X128.46 Y114.46 E21.45241
G1 X128.46 Y115.862 E21.49904
G1 X128.554 Y115.974 E21.5039
